app/images/icons/instagram.svg

<svg enable-background="new 0 0 62 62" height="62" viewBox="0 0 62 62" width="62" xmlns="http://www.w3.org/2000/svg" xmlns:xlink="http://www.w3.org/1999/xlink"><mask id="a" height="62" maskUnits="userSpaceOnUse" width="62" x="0" y="0"><path d="m.007 62h61.993v-62h-61.993z" fill="#fff"/></mask><g fill="#2196f3"><path d="m17.67 2.067c-8.577 0-15.603 7.026-15.603 15.603v26.66c0 8.577 7.026 15.604 15.603 15.604h26.66c8.577 0 15.604-7.026 15.604-15.604v-26.66c0-8.577-7.026-15.603-15.604-15.603zm26.66 59.933h-26.66c-9.713 0-17.67-7.957-17.67-17.67v-26.66c0-9.713 7.957-17.67 17.67-17.67h26.66c9.713 0 17.67 7.957 17.67 17.67v26.66c0 9.713-7.957 17.67-17.67 17.67z" mask="url(#a)"/><path d="m17.67 8.267c-5.167 0-9.403 4.236-9.403 9.403v26.66c0 5.167 4.236 9.402 9.403 9.402h26.66c5.167 0 9.402-4.235 9.402-9.402v-26.66c0-5.167-4.235-9.403-9.402-9.403zm26.66 47.533h-26.66c-6.303 0-11.47-5.167-11.47-11.47v-26.66c0-6.303 5.167-11.47 11.47-11.47h26.66c6.303 0 11.47 5.167 11.47 11.47v26.66c0 6.303-5.167 11.47-11.47 11.47z"/><path d="m31 16.533c-7.957 0-14.467 6.51-14.467 14.467s6.51 14.467 14.467 14.467 14.467-6.51 14.467-14.467-6.51-14.467-14.467-14.467zm0 31c-9.093 0-16.533-7.44-16.533-16.533s7.44-16.533 16.533-16.533 16.533 7.44 16.533 16.533-7.44 16.533-16.533 16.533z"/><path d="m31 21.7c-5.115-.022-9.278 4.107-9.3 9.222v.078c0 5.167 4.133 9.3 9.3 9.3s9.3-4.133 9.3-9.3-4.133-9.3-9.3-9.3zm0 20.667c-6.26.018-11.349-5.041-11.367-11.301 0-.022 0-.044 0-.066-.018-6.26 5.042-11.349 11.301-11.367h.066c6.26-.018 11.349 5.042 11.367 11.301v.066c.018 6.26-5.041 11.349-11.301 11.367-.022 0-.044 0-.066 0zm19.633-27.9c0-1.757-1.343-3.1-3.1-3.1-1.756 0-3.1 1.343-3.1 3.1 0 1.756 1.344 3.1 3.1 3.1 1.757 0 3.1-1.344 3.1-3.1"/></g></svg>

<?xml version="1.0" encoding="utf-8"?>
<!-- Generator: Adobe Illustrator 16.0.0, SVG Export Plug-In . SVG Version: 6.00 Build 0)  -->
<!DOCTYPE svg PUBLIC "-//W3C//DTD SVG 1.1//EN" "http://www.w3.org/Graphics/SVG/1.1/DTD/svg11.dtd">
<svg version="1.1" id="Layer_1" xmlns="http://www.w3.org/2000/svg" xmlns:xlink="http://www.w3.org/1999/xlink" x="0px" y="0px"
	 width="62px" height="62px" viewBox="0 0 62 62" enable-background="new 0 0 62 62" xml:space="preserve">
<g>
	<g>
		<defs>
			<filter id="Adobe_OpacityMaskFilter" filterUnits="userSpaceOnUse" x="0" y="0" width="62" height="62">
				<feColorMatrix  type="matrix" values="1 0 0 0 0  0 1 0 0 0  0 0 1 0 0  0 0 0 1 0"/>
			</filter>
		</defs>
		<mask maskUnits="userSpaceOnUse" x="0" y="0" width="62" height="62" id="b">
			<g filter="url(#Adobe_OpacityMaskFilter)">
				<path id="a" fill="#FFFFFF" d="M0.007,62H62V0H0.007V62z"/>
			</g>
		</mask>
		<path mask="url(#b)" fill="#2196F3" d="M17.67,2.067c-8.577,0-15.603,7.026-15.603,15.603v26.66
			c0,8.577,7.026,15.604,15.603,15.604h26.66c8.577,0,15.604-7.026,15.604-15.604V17.67c0-8.577-7.026-15.603-15.604-15.603H17.67z
			 M44.33,62H17.67C7.957,62,0,54.043,0,44.33V17.67C0,7.957,7.957,0,17.67,0h26.66C54.043,0,62,7.957,62,17.67v26.66
			C62,54.043,54.043,62,44.33,62z"/>
	</g>
	<path fill="#2196F3" d="M17.67,8.267c-5.167,0-9.403,4.236-9.403,9.403v26.66c0,5.167,4.236,9.402,9.403,9.402h26.66
		c5.167,0,9.402-4.235,9.402-9.402V17.67c0-5.167-4.235-9.403-9.402-9.403H17.67z M44.33,55.8H17.67
		c-6.303,0-11.47-5.167-11.47-11.47V17.67c0-6.303,5.167-11.47,11.47-11.47h26.66c6.303,0,11.47,5.167,11.47,11.47v26.66
		C55.8,50.633,50.633,55.8,44.33,55.8z"/>
	<path fill="#2196F3" d="M31,16.533c-7.957,0-14.467,6.51-14.467,14.467S23.043,45.467,31,45.467S45.467,38.957,45.467,31
		S38.957,16.533,31,16.533z M31,47.533c-9.093,0-16.533-7.44-16.533-16.533S21.907,14.467,31,14.467S47.533,21.907,47.533,31
		S40.093,47.533,31,47.533z"/>
	<path fill="#2196F3" d="M31,21.7c-5.115-0.022-9.278,4.107-9.3,9.222c0,0.026,0,0.052,0,0.078c0,5.167,4.133,9.3,9.3,9.3
		s9.3-4.133,9.3-9.3S36.167,21.7,31,21.7z M31,42.367c-6.26,0.018-11.349-5.041-11.367-11.301c0-0.022,0-0.044,0-0.066
		c-0.018-6.26,5.042-11.349,11.301-11.367c0.022,0,0.044,0,0.066,0c6.26-0.018,11.349,5.042,11.367,11.301c0,0.022,0,0.044,0,0.066
		c0.018,6.26-5.041,11.349-11.301,11.367C31.044,42.367,31.022,42.367,31,42.367z M50.633,14.467c0-1.757-1.343-3.1-3.1-3.1
		c-1.756,0-3.1,1.343-3.1,3.1c0,1.756,1.344,3.1,3.1,3.1C49.29,17.567,50.633,16.223,50.633,14.467"/>
</g>
</svg>
